X:163
T: Bayue shiwu kan yueguang
N: C0270
O: China,Fujian, Jongding
S: II, 611]
N: am typischsten fuer keren. Aehnlich wie II, 588
N: Haupttoene: 6-1-2-(5)
N: Wenig Verzierungen.
R: Shange. Biaoda aiqing]
M: 2/4
L: 1/16
K: C
A2Acd2d2 | c2Acd2c2- | c8 |
d2d2c2Ac | d2cAGAA2- | A8 |
A2A2d2d2 | c2Add2A2- | A8 |
A2A2d2d2 | c2AGA2G2- | G8

@@@ Tune index: 6164
